icon/hi/fast-forward-outline.svg

<svg viewBox="0 0 24 24" fill="none" xmlns="http://www.w3.org/2000/svg" height="1em" width="1em">
  <path d="M11.9333 12.8C12.4667 12.4 12.4667 11.6 11.9333 11.2L6.6 7.19998C5.94076 6.70556 5 7.17594 5 7.99998L5 16C5 16.824 5.94076 17.2944 6.6 16.8L11.9333 12.8Z" stroke="#374151" stroke-width="2" stroke-linecap="round" stroke-linejoin="round"/>
  <path d="M19.9333 12.8C20.4667 12.4 20.4667 11.6 19.9333 11.2L14.6 7.19998C13.9408 6.70556 13 7.17594 13 7.99998L13 16C13 16.824 13.9408 17.2944 14.6 16.8L19.9333 12.8Z" stroke="#374151" stroke-width="2" stroke-linecap="round" stroke-linejoin="round"/>
</svg>

<svg width="24" height="24" fill="none" xmlns="http://www.w3.org/2000/svg"><path d="M11.933 12.8a1 1 0 0 0 0-1.6L6.6 7.2A1 1 0 0 0 5 8v8a1 1 0 0 0 1.6.8l5.333-4ZM19.933 12.8a1 1 0 0 0 0-1.6l-5.333-4A1 1 0 0 0 13 8v8a1 1 0 0 0 1.6.8l5.333-4Z" stroke="#374151" stroke-width="2" stroke-linecap="round" stroke-linejoin="round"/></svg>
